X:1
T:Que puis ie lors
T:Que puis ie lors
T:Pierre de Manchicourt
C:Pierre de Manchicourt
%%score [ 1 [ 2 3 ] 4 ]
L:1/8
Q:1/4=90
M:2/2
K:C
V:1 treble nm="Superius" snm="S"
V:2 treble-8 nm="Tenor 1" snm="T 1"
V:3 treble-8 nm="Tenor 2" snm="T 2"
V:4 bass nm="Bassus" snm="B"
V:1
 G8 | G4 A4 | G2 G2 G2 F2 | E2 D2 E4- | E4 z2 F2 | F2 D2 A4 | z2 A2 A2 c2 | B2 A2 FG AF | %8
w: Que|puis je|lors, quant mon mal-|heur con- sent|_ par|sa ri- gueur,|ce qui plus|je de- si- * * *|
w: Es-|tre de|moy si lon- gue-|ment ab- sent,|_ fors|d'aug- men- ter|mon dueil et|mon mar ti- * * *|
 GD d2 c2 B2- |"^#" B2 A4 G2 |1 A4 z4 :|2 A2 A2 c3 B || A2 G2 A4 | G8- | G4 z4 | z2 E2 D2 C2 | %16
w: ||re,|re, s'e- ba- *|* * his-|t'on|_|si sou- vent|
w: ||re,||||||
 G2 G2 A2 E2 | F4 E4 | z2 G2 A2 B2 | c2 B2 AB cA | B2 c4 BA | GFEF GA B2 | G2 c4 B2 | c4 z4 | A8 | %25
w: je sous- pi- *|* re,|et si je|suis pen- si- * * *|ve de- * *|ve- * * * nu- * *||e,|O|
w: |||||||||
 G4 A4 | A4 z2 A2 | G2 E2 GF GA | B2 B2 A2 F2- | FE A3 GGF/E/ | F4 E4 | z2 E2 F2 E2 | C2 D2 E2 F2 | %33
w: doulx pen-|ser, je|vois en toy _ _ _|_ re lui- *||* re|l'heur de mon|bien, l'heur de mon|
w: ||||||||
 D2 z2 A2 c2 | B2 d2 c2 G2 | B2 A2 z A c2 | B2 d2 c2 GA | Bc B3 A A2- |"^#" A2 G2 A4- | A8 |] %40
w: bien, mais trop|pen- ser me tu-|* e, mais trop|pen- ser me tu- *||* * e.|_|
w: |||||||
V:2
 e8 | d4 f4 | d2 e2 e2 c2 | c2 B2 c4 | z2 c2 c2 A2 | d4 z2 c2 | f2 f2 e2 e2 | f3 e d2 c2 | %8
w: Que|puis je|lors, quant mon mal-|heur con- sent|par sa ri-|gueur, ce|qui plus je de-|si- * * *|
w: Es-|tre de|moy si lon- gue-|ment ab- sent,|fors d'aug- men-|ter, mon|dueil et mon mar-|ti- * * *|
 e2 f4 d2 | f4 e4 |1 c4 z4 :|2 c4 z2 e2- || e2 e2 AB cd | e4 z2 e2 | e2 e2 c2 e2 | f2 g3 f e2- | %16
w: ||re,|re, s'e-|* ba- his _ _ _|t'on si|sou- vent je sous-|pi- * * *|
w: ||re,||||||
 ed cB AB c2- | c2 B2 c2 c2 | d2 e2 f2 g2 | e2 g2 fe ed/c/ | d2 e4 d2 | e2 g3 fed | e2 f2 g4 | %23
w: |* * re, et|si je suis pen-|si- ve de- * * * *|* * ve-|nu- * * * *||
w: |||||||
 e4 z4 | f8 | d4 f4- | f2 ed e4- | e4 z2 e2 | d2 B2 d2 d2 | AB cd e4 | d3 c B2 B2 | c2 A4 G2 | A8 | %33
w: e,|O|doulx pen-|* * * ser,|_ je|vois en toy re-|lui- * * * *|* * re l'heur|de _ mon|bien,|
w: ||||||||||
 z2 d2 f2 e2 | g2 f2 (3c2 d2 e2 | d2 z d f2 e2 | g2 f2 (3c2 d2 e2 | d2 f4 d2 | e4 c4- | c8 |] %40
w: mais trop pen-|ser me tu- * *|e, mais trop pen-|ser me tu- * *||* e.|_|
w: |||||||
V:3
 c8 | B4 c4 | B2 c2 B2 A2 | G2 F2 E2 E2 | G2 A3 GFE | DCDE FG AB | c2 d4 c2 | d4 A2 A2 | %8
w: Que|puis je|lors, quant mon mal-|heur con- sent par|sa ri- gueur _ _|_ _ _ _ _ _ _ _|* ce qui|plus je de-|
w: Es-|tre de|moy si lon- gue-|ment ab- sent, fors|d'aug- men- ter _ _|_ _ _ _ _ _ _ _|* mon dueil|et mon mar-|
 c2 B2 A2 B2 | c2 d2 B4 |1 A4 z4 :|2 A4 z2 A2 || c6 BA | B4 c4 | z2 B2 A2 G2 | d2 G2 B2 c2 | %16
w: si- * * *||re,|re, s'e-|ba- his _|_ t'on|si sou- vent|je sous- pi- *|
w: ti- * * *||re,||||||
 B2 c3 B AG | FE F2 G2 A2 | G4 z2 G2 | A2 B2 c2 c2 | B2 G2 A4 | B2 c4 B2 | c4 d4 | c4 z4 | c8 | %25
w: ||re, et|si je suis pen-|si- ve de-|ve- nu- *||e,|O|
w: |||||||||
 B4 d4- |"^#""^#" d2 cB c4- | c4 B4- | B4 z2 d2 | c2 A2 c2 c2 | B2 A4 G2 | A2 c2 B4 | %32
w: doulx pen-||* ser,|_ je|vois en toy re-|lui- re l'heur|de mon bien,|
w: |||||||
 z2 A2 c2 A2- | A2 G2 A4 | z4 A2 c2 | B2 d4 c2 | d3 c AB c2 | B2 d3 c A2 | B4 A4- | A8 |] %40
w: mais trop pen-|* * ser,|mais trop|pen ser me|tu- * * * *||* e.|_|
w: ||||||||
V:4
 C,8 | G,4 F,4 | G,2 C,2 E,2 F,2 | C,2 D,2 A,,4 | z2 A,,2 C,2 D,2 |"^b" B,,4 A,,2 F,2 | %6
w: Que|puis je|lors, quant mon mal-|heur con- sent|par sa ri-|* gueur, par|
w: Es-|tre de|moy si lon- gue-|ment ab- sent,|fors d'aug- men-|* ter, fors|
 F,2 D,2 A,4 | z2 D,2 D,2 F,2 | E,2 D,2 F,2 G,2 | A,2 D,2 E,4 |1 A,,4 z4 :|2 A,,8 || z2 C,2 F,4 | %13
w: sa ri- gueur,|ce qui plus|je de- si- *||re,|re,|s'e- ba-|
w: d'aug- men- ter,|mon dueil et|mon mar- ti- *||re,|||
 E,4 C,3 D, | E,4 z2 E,2 | D,2 C,2 G,2 C,2 | E,4 F,2 C,2 | D,4 C,4 | z2 C,2 F,2 E,2 | %19
w: his t'on _|_ si|sou- vent je sous-|pi- * *|* re,|et si je|
w: ||||||
 A,,2 E,2 A,2 A,2 | G,2 E,2 F,4 | E,2 C,D, E,F, G,2 | E,2 A,2 G,4 | C,4 z4 | F,8 | G,4 D,4 | A,8 | %27
w: suis pen- si- ve|de- ve- nu-|||e,|O|doulx pen-|ser,|
w: ||||||||
 z2 A,2 G,2 E,2 | G,2 G,2 F,2 D,2 | F,4 E,2 C,2 | D,4 E,4 | A,,4 z2 E,2 | F,3 E,/D,/ C,2 D,2 | %33
w: je vois en|toy re- lui- *|||re l'heur|de _ _ _ mon|
w: ||||||
 B,,4 A,,4 | z2 D,2 F,2 E,2 | G,2 D,2 A,4 | G,2 z D, F,2 E,2 | G,2 D,2 F,4 | E,4 A,,4- | A,,8 |] %40
w: _ bien,|mais trop pen-|ser me tu-|e, mais trop pen-|ser ma tu-|* e.|_|
w: |||||||

